packages/sights/assets/overlays/VmFL3v2A.svg

<svg width="500" height="375" viewBox="0 0 500 375" fill="none" xmlns="http://www.w3.org/2000/svg">
<path d="M7 93.3199L88.8 89.6599C88.8 89.6599 234 10.5699 255.08 4.85986" stroke="white" stroke-miterlimit="10"/>
<path d="M7 246.19C7 246.19 68 263.62 85.89 323.69L92.73 365L98.24 369.39L493 282.42" stroke="white" stroke-miterlimit="10"/>
<path d="M245.51 77.44C245.51 77.44 212.43 77.12 165.19 93.32C151.827 95.3131 138.34 96.3623 124.83 96.46L118 109.53C118 109.53 201.92 107.46 216.59 101.96C216.59 101.96 239.29 95.01 240.9 93.32L242.96 89.81L248.47 63.44L247.09 59.54C247.09 59.54 236.09 49.65 217.51 49.09C217.51 49.09 195.27 47.85 166.84 72.38L166.15 75.13L172.15 90.96" stroke="white" stroke-miterlimit="10"/>
<path d="M124.83 96.4599C124.83 96.4599 237.34 9.99986 293.6 4.85986" stroke="white" stroke-miterlimit="10"/>
<path d="M415.74 4.85986C415.74 4.85986 490.24 19.4899 493 22.6999" stroke="white" stroke-miterlimit="10"/>
<path d="M360.1 4.85986C360.1 4.85986 427.94 10.4699 492.96 27.8599" stroke="white" stroke-miterlimit="10"/>
<path d="M205.289 104.28C205.289 104.28 483.199 96.28 492.959 96.46" stroke="white" stroke-miterlimit="10"/>
<path d="M400 9.54004L401.64 14.48C401.64 14.48 406.15 71.15 405.23 96.48L410.35 104.31L413.91 132.14C413.91 132.14 412.53 133.06 412.53 136.73C412.53 136.73 410.53 188.44 400 256.73C400 256.73 398 273.24 400 287.15L400.34 290.36L391.58 304.75" stroke="white" stroke-miterlimit="10"/>
<path d="M35.8691 235.87C35.8691 235.87 88.3791 260 103.509 317.5L492.999 246.19" stroke="white" stroke-miterlimit="10"/>
<path d="M118 109.53L115.09 115.03L109.59 154.47C109.59 154.47 106.24 217.76 121 314.29" stroke="white" stroke-miterlimit="10"/>
<path d="M366.06 144.73C366.06 144.73 369.96 147.65 373.62 147.88L392.71 147.31L393.23 146.31L389.56 143.25L390.56 142.67C390.56 142.67 401.97 143.07 403.12 144.22L404.72 146.4L404.43 151.73L403.12 153.51C403.12 153.51 361.9 157.12 355.82 156.43L354 154.87L354.23 149.58C354.23 149.58 355.39 146.85 366.06 144.73Z" stroke="white" stroke-miterlimit="10"/>
<path d="M46 267C46 267 90.44 310 71 369.36" stroke="white" stroke-miterlimit="10"/>
</svg>

<svg width="500" height="375" fill="none" xmlns="http://www.w3.org/2000/svg"><path d="m7 93.32 81.8-3.66S234 10.57 255.08 4.86M7 246.19s61 17.43 78.89 77.5L92.73 365l5.51 4.39L493 282.42M245.51 77.44s-33.08-.32-80.32 15.88a287.698 287.698 0 0 1-40.36 3.14L118 109.53s83.92-2.07 98.59-7.57c0 0 22.7-6.95 24.31-8.64l2.06-3.51 5.51-26.37-1.38-3.9s-11-9.89-29.58-10.45c0 0-22.24-1.24-50.67 23.29l-.69 2.75 6 15.83" stroke="#fff" stroke-miterlimit="10"/><path d="M124.83 96.46S237.34 10 293.6 4.86M415.74 4.86S490.24 19.49 493 22.7M360.1 4.86s67.84 5.61 132.86 23M205.289 104.28s277.91-8 287.67-7.82" stroke="#fff" stroke-miterlimit="10"/><path d="m400 9.54 1.64 4.94s4.51 56.67 3.59 82l5.12 7.83 3.56 27.83s-1.38.92-1.38 4.59c0 0-2 51.71-12.53 120 0 0-2 16.51 0 30.42l.34 3.21-8.76 14.39" stroke="#fff" stroke-miterlimit="10"/><path d="M35.87 235.87S88.38 260 103.508 317.5l389.49-71.31" stroke="#fff" stroke-miterlimit="10"/><path d="m118 109.53-2.91 5.5-5.5 39.44s-3.35 63.29 11.41 159.82M366.06 144.73s3.9 2.92 7.56 3.15l19.09-.57.52-1-3.67-3.06 1-.58s11.41.4 12.56 1.55l1.6 2.18-.29 5.33-1.31 1.78s-41.22 3.61-47.3 2.92l-1.82-1.56.23-5.29s1.16-2.73 11.83-4.85ZM46 267s44.44 43 25 102.36" stroke="#fff" stroke-miterlimit="10"/></svg>
